actions/16/tools-check-spelling.svg

<?xml version="1.0" encoding="UTF-8"?>
<!-- Created with Inkscape (http://www.inkscape.org/) -->
<svg width="16" height="16" version="1.1" xmlns="http://www.w3.org/2000/svg" xmlns:cc="http://creativecommons.org/ns#" xmlns:dc="http://purl.org/dc/elements/1.1/" xmlns:rdf="http://www.w3.org/1999/02/22-rdf-syntax-ns#">
	<defs>
		<radialGradient id="b" cx="23.739" cy="11.105" r="8.7344" gradientTransform="matrix(2.1753 0 0 2.1753 -43.64 -10.157)" gradientUnits="userSpaceOnUse">
			<stop stop-color="#ffffff" stop-opacity=".74858" offset="0"/>
			<stop stop-color="#ffffff" stop-opacity=".60511" offset="1"/>
		</radialGradient>
		<radialGradient id="a" cx="-9335.6" cy="5000.6" r="9" gradientTransform="matrix(1.6668 0 0 1.4816 15569 -7395.6)" gradientUnits="userSpaceOnUse">
			<stop stop-color="#213851" stop-opacity=".9059" offset="0"/>
			<stop stop-color="#27303a" stop-opacity="0" offset="1"/>
		</radialGradient>
	</defs>
	<metadata>
		<rdf:RDF>
			<cc:Work rdf:about="">
				<dc:format>image/svg+xml</dc:format>
				<dc:type rdf:resource="http://purl.org/dc/dcmitype/StillImage"/>
				<dc:title/>
			</cc:Work>
		</rdf:RDF>
	</metadata>
	<g transform="translate(9379.3 -4843.2)" shape-rendering="auto">
		<path d="m-9376.3 4845.2-1 1v7h2v-2h2v2h2v-7l-1-1zm6 0v8h2 3l1-1v-4l-1-1h-3v-2zm-5 2h2v2h-2zm7 2h2v2h-2zm-7 5.1504-2.4238 2.4258-0.4239 0.4238 0.8477 0.8477 0.4258-0.4239 1.5742-1.5761 2 2 2-2 2 2 2-2 1.5762 1.5761 0.4238 0.4239 0.8496-0.8477-0.4238-0.4238-2.4258-2.4258-2 2-2-2-2 2z" color="#000000" color-rendering="auto" dominant-baseline="auto" fill="#090d11" fill-opacity=".76621" image-rendering="auto" solid-color="#000000" style="font-feature-settings:normal;font-variant-alternates:normal;font-variant-caps:normal;font-variant-east_asian:normal;font-variant-ligatures:normal;font-variant-numeric:normal;font-variant-position:normal;isolation:auto;mix-blend-mode:normal;paint-order:normal;shape-padding:0;text-decoration-color:#000000;text-decoration-line:none;text-decoration-style:solid;text-indent:0;text-orientation:mixed;text-transform:none;white-space:normal"/>
		<path transform="translate(-9379.3 4843.2)" d="m3 2-1 1v7h2v-2h2v2h2v-7l-1-1h-4zm6 0v8h2 3l1-1v-4l-1-1h-3v-2h-2zm-5 2h2v2h-2v-2zm7 2h2v2h-2v-2zm-7 5.1504-2.4238 2.4258-0.42383 0.42383 0.84766 0.84766 0.42578-0.42383 1.5742-1.5762 2 2 2-2 2 2 2-2 1.5762 1.5762 0.42383 0.42383 0.84961-0.84766-0.42383-0.42383-2.4258-2.4258-2 2-2-2-2 2-2-2z" color="#000000" color-rendering="auto" dominant-baseline="auto" fill="url(#a)" fill-opacity=".75328" image-rendering="auto" solid-color="#000000" style="font-feature-settings:normal;font-variant-alternates:normal;font-variant-caps:normal;font-variant-east_asian:normal;font-variant-ligatures:normal;font-variant-numeric:normal;font-variant-position:normal;isolation:auto;mix-blend-mode:normal;paint-order:normal;shape-padding:0;text-decoration-color:#000000;text-decoration-line:none;text-decoration-style:solid;text-indent:0;text-orientation:mixed;text-transform:none;white-space:normal"/>
		<path transform="translate(-9379.3 4843.2)" d="m2.5938 1-0.3125 0.28125-1 1-0.28125 0.3125v0.40625 7 1h1 2 1 1 2 1 2 3 0.40625l0.3125-0.28125 1-1 0.28125-0.3125v-0.40625-4-0.40625l-0.28125-0.3125-1-1-0.3125-0.28125h-0.40625-2v-1-1h-1-2-1v0.5625l-0.28125-0.28125-0.3125-0.28125h-0.40625-4-0.40625zm0.40625 1h4l1 1v7h-2v-2h-2v2h-2v-7l1-1zm6 0h2v2h3l1 1v4l-1 1h-3-2v-8zm-5 2v2h2v-2h-2zm7 2v2h2v-2h-2zm-7 6.9004-2.4238 2.4258-0.42383 0.42383 0.84766 0.84766 0.42578-0.42383 1.5742-1.5762 2 2 2-2 2 2 2-2 1.5762 1.5762 0.42383 0.42383 0.84961-0.84766-0.42383-0.42383-2.4258-2.4258-2 2-2-2-2 2-2-2z" color="#000000" color-rendering="auto" dominant-baseline="auto" fill="url(#b)" fill-opacity=".99858" image-rendering="auto" solid-color="#000000" style="font-feature-settings:normal;font-variant-alternates:normal;font-variant-caps:normal;font-variant-east_asian:normal;font-variant-ligatures:normal;font-variant-numeric:normal;font-variant-position:normal;isolation:auto;mix-blend-mode:normal;paint-order:normal;shape-padding:0;text-decoration-color:#000000;text-decoration-line:none;text-decoration-style:solid;text-indent:0;text-orientation:mixed;text-transform:none;white-space:normal"/>
	</g>
</svg>

<?xml version="1.0" encoding="UTF-8" standalone="no"?>
<!-- Created with Inkscape (http://www.inkscape.org/) -->

<svg
   xmlns:dc="http://purl.org/dc/elements/1.1/"
   xmlns:cc="http://creativecommons.org/ns#"
   xmlns:rdf="http://www.w3.org/1999/02/22-rdf-syntax-ns#"
   xmlns:svg="http://www.w3.org/2000/svg"
   xmlns="http://www.w3.org/2000/svg"
   xmlns:sodipodi="http://sodipodi.sourceforge.net/DTD/sodipodi-0.dtd"
   xmlns:inkscape="http://www.inkscape.org/namespaces/inkscape"
   width="15.999998"
   height="15.999998"
   id="svg13094"
   version="1.1"
   inkscape:version="0.48.3.1 r9886"
   sodipodi:docname="tools-check-spelling.svg">
  <sodipodi:namedview
     id="base"
     pagecolor="#ffffff"
     bordercolor="#666666"
     borderopacity="1.0"
     inkscape:pageopacity="0.0"
     inkscape:pageshadow="2"
     inkscape:zoom="45.254834"
     inkscape:cx="10.705262"
     inkscape:cy="7.6839098"
     inkscape:document-units="px"
     inkscape:current-layer="layer1"
     showgrid="true"
     inkscape:snap-bbox="true"
     inkscape:bbox-paths="true"
     inkscape:bbox-nodes="true"
     inkscape:snap-bbox-edge-midpoints="true"
     inkscape:snap-bbox-midpoints="true"
     inkscape:object-paths="true"
     inkscape:snap-intersection-paths="true"
     inkscape:object-nodes="true"
     inkscape:snap-smooth-nodes="true"
     inkscape:snap-midpoints="true"
     inkscape:snap-object-midpoints="true"
     inkscape:snap-center="true"
     showguides="false"
     inkscape:guide-bbox="true"
     inkscape:window-width="1920"
     inkscape:window-height="1023"
     inkscape:window-x="-10"
     inkscape:window-y="35"
     inkscape:window-maximized="1"
     inkscape:snap-global="true"
     fit-margin-top="0"
     fit-margin-left="0"
     fit-margin-right="0"
     fit-margin-bottom="0"
     showborder="true"
     inkscape:showpageshadow="false">
    <sodipodi:guide
       orientation="0,1"
       position="-25.000005,930.61286"
       id="guide4700" />
    <sodipodi:guide
       orientation="0,1"
       position="576.71887,328.89388"
       id="guide4702" />
    <sodipodi:guide
       orientation="1,0"
       position="576.71899,489.70395"
       id="guide4706" />
    <sodipodi:guide
       orientation="1,0"
       position="54.999996,930.61286"
       id="guide4708" />
    <sodipodi:guide
       orientation="0,1"
       position="-25.000005,850.61296"
       id="guide4710" />
    <sodipodi:guide
       orientation="0,1"
       position="536.71887,408.8938"
       id="guide4712" />
    <sodipodi:guide
       orientation="1,0"
       position="496.71887,408.8938"
       id="guide4714" />
    <inkscape:grid
       type="xygrid"
       id="grid3216"
       empspacing="5"
       visible="true"
       enabled="true"
       snapvisiblegridlinesonly="true"
       originx="-24.999951px"
       originy="-219.00005px" />
    <sodipodi:guide
       orientation="-0.70710664,0.70710692"
       position="4.0000502,-246.00005"
       id="guide3847" />
    <sodipodi:guide
       orientation="0.70710594,0.70710762"
       position="5.0000502,-245.00005"
       id="guide3849" />
    <sodipodi:guide
       orientation="-0.70710681,0.70710676"
       position="7.0000502,-212.00005"
       id="guide3851" />
  </sodipodi:namedview>
  <defs
     id="defs13096" />
  <metadata
     id="metadata13099">
    <rdf:RDF>
      <cc:Work
         rdf:about="">
        <dc:format>image/svg+xml</dc:format>
        <dc:type
           rdf:resource="http://purl.org/dc/dcmitype/StillImage" />
        <dc:title />
      </cc:Work>
    </rdf:RDF>
  </metadata>
  <g
     transform="translate(9379.308,-4843.1988)"
     id="layer1"
     inkscape:groupmode="layer"
     inkscape:label="Camada 1">
    <path
       sodipodi:nodetypes="ccccccc"
       inkscape:connector-curvature="0"
       id="path3842"
       d="m -9377.308,4857.1988 2,-2 2,2 2,-2 2,2 2,-2 2,2"
       style="color:#000000;fill:none;stroke:#27303a;stroke-width:1.20000005;stroke-linecap:square;stroke-miterlimit:4;stroke-opacity:0.753280819999999968;stroke-dasharray:none;marker:none;visibility:visible;display:inline;overflow:visible;enable-background:accumulate" />
    <path
       style="color:#000000;fill:none;stroke:#f1f3f5;stroke-width:1.20000005000000010;stroke-linecap:square;stroke-miterlimit:4;stroke-opacity:0.74509805;stroke-dasharray:none;marker:none;visibility:visible;display:inline;overflow:visible;enable-background:accumulate"
       d="m -9377.308,4858.9488 2,-2 2,2 2,-2 2,2 2,-2 2,2"
       id="path3029"
       inkscape:connector-curvature="0"
       sodipodi:nodetypes="ccccccc" />
    <path
       sodipodi:nodetypes="ccccccccccccccccccccccccccccccc"
       inkscape:connector-curvature="0"
       id="path3816"
       d="m -9377.3079,4846.1989 -1e-4,6.9999 2,0 0,-2 2,0 0,2 2,0 1e-4,-6.9999 -1,-1 -4,0 z m 6.9999,-1.0001 0,8 2,0 3,0 1,-1 0,-4 -1,-1 -3,0 0,-2 z m -5,2 2,0 0,2 -2,0 z m 7,2 2,0 0,2 -2,0 z"
       style="color:#000000;fill:#27303a;fill-opacity:0.753280819999999968;fill-rule:nonzero;stroke:none;stroke-width:1.20000005;marker:none;visibility:visible;display:inline;overflow:visible;enable-background:accumulate" />
    <path
       style="font-size:medium;font-style:normal;font-variant:normal;font-weight:normal;font-stretch:normal;text-indent:0;text-align:start;text-decoration:none;line-height:normal;letter-spacing:normal;word-spacing:normal;text-transform:none;direction:ltr;block-progression:tb;writing-mode:lr-tb;text-anchor:start;baseline-shift:baseline;color:#000000;fill:#f1f3f5;fill-opacity:0.90288714000000003;fill-rule:nonzero;stroke:none;stroke-width:2;marker:none;visibility:visible;display:inline;overflow:visible;enable-background:accumulate;font-family:Sans;-inkscape-font-specification:Sans"
       d="M 2.59375 1 L 2.28125 1.28125 L 1.28125 2.28125 L 1 2.59375 L 1 3 L 1 10 L 1 11 L 2 11 L 4 11 L 5 11 L 6 11 L 8 11 L 9 11 L 11 11 L 14 11 L 14.40625 11 L 14.71875 10.71875 L 15.71875 9.71875 L 16 9.40625 L 16 9 L 16 5 L 16 4.59375 L 15.71875 4.28125 L 14.71875 3.28125 L 14.40625 3 L 14 3 L 12 3 L 12 2 L 12 1 L 11 1 L 9 1 L 8 1 L 8 1.5625 L 7.71875 1.28125 L 7.40625 1 L 7 1 L 3 1 L 2.59375 1 z M 3 2 L 7 2 L 8 3 L 8 10 L 6 10 L 6 8 L 4 8 L 4 10 L 2 10 L 2 3 L 3 2 z M 9 2 L 11 2 L 11 4 L 14 4 L 15 5 L 15 9 L 14 10 L 11 10 L 9 10 L 9 2 z M 4 4 L 4 6 L 6 6 L 6 4 L 4 4 z M 11 6 L 11 8 L 13 8 L 13 6 L 11 6 z "
       transform="translate(-9379.308,4843.1988)"
       id="rect3801" />
  </g>
</svg>
